static/img/full-logo.svg

<svg width="218" height="47" viewBox="0 0 218 47" fill="none" xmlns="http://www.w3.org/2000/svg">
<path d="M17.251 16.2265L15.7394 31.0422H18.8568L19.5783 23.9702C19.8907 23.7726 20.6049 23.4566 21.3648 23.4566C22.2026 23.4566 22.4055 23.9504 22.3309 24.6813L21.6819 31.0422H24.7993L25.4967 24.2072C25.6902 22.3108 25.0754 20.8885 22.4256 20.8885C21.354 20.8885 20.5465 21.1651 19.8283 21.5206L20.3684 16.2265H17.251Z" fill="#282828"/>
<path d="M34.6345 27.148C35.2039 24.0466 35.2341 20.8859 31.067 20.8859C28.0487 20.8859 26.3412 22.5453 25.9786 26.101C25.616 29.6568 27.0046 31.3162 30.2176 31.3162C31.3859 31.3162 32.7712 31.0989 33.9489 30.6248L34.2007 28.1555C33.4635 28.5111 32.3428 28.8074 30.8823 28.8074C29.3635 28.8074 28.7397 28.432 28.9485 27.148H34.6345ZM30.8642 23.2564C32.052 23.2564 32.1971 24.1256 31.911 25.2121H29.1459C29.2728 23.9676 29.8127 23.2564 30.8642 23.2564Z" fill="#282828"/>
<path d="M36.1732 21.1625L35.1661 31.0396H38.2815L39.0026 23.9676C39.3148 23.77 40.0285 23.454 40.7879 23.454C41.6251 23.454 41.8279 23.9478 41.7534 24.6787L41.1048 31.0396H44.2202L44.9171 24.2046C45.1105 22.3082 44.4961 20.8859 41.8481 20.8859C40.7771 20.8859 39.5182 21.202 38.3594 21.8736L38.0425 21.1625H36.1732Z" fill="#282828"/>
<path d="M51.6944 28.6554C51.5344 28.6949 51.1366 28.7739 50.7274 28.7739C49.7335 28.7739 49.4855 28.3394 49.5641 27.5689L49.9492 23.7959H52.3657L52.6338 21.1686H50.2173L50.5016 18.3832L47.2968 19.2326L47.0892 21.2673L45.4663 21.7019L45.2526 23.7959H46.8311L46.4199 27.8257C46.182 30.1567 47.0959 31.3222 49.8242 31.3222C50.2529 31.3222 51.0015 31.2432 51.4424 31.1247L51.6944 28.6554Z" fill="#282828"/>
<path d="M58.3872 28.3333C58.3872 28.3333 57.7413 28.7481 56.9625 28.7481C55.5216 28.7481 55.3067 27.7999 55.48 26.101C55.6512 24.4219 56.0614 23.454 57.5023 23.454C58.2811 23.454 58.8424 23.8688 58.8424 23.8688L58.3872 28.3333ZM62.2337 21.1625H60.3645L59.7582 21.9526C59.1372 21.36 58.2704 20.8859 56.7127 20.8859C54.1814 20.8859 52.7742 22.4662 52.4035 26.101C52.0329 29.7358 53.1179 31.3162 55.6492 31.3162C57.2068 31.3162 58.1764 31.3557 58.9183 30.763L59.3574 31.0396H61.2266L62.2337 21.1625Z" fill="#282828"/>
<path d="M62.4672 31.0482H65.5722L66.5823 21.171H63.4773L62.4672 31.0482ZM63.4773 18.3066C63.3682 19.3734 64.086 20.1833 65.1406 20.1833C66.1756 20.1833 67.0786 19.3734 67.1877 18.3066C67.2948 17.2596 66.5594 16.43 65.5244 16.43C64.4699 16.43 63.5843 17.2596 63.4773 18.3066Z" fill="#282828"/>
<path d="M72.8453 31.3207C77.4416 31.3207 78.991 28.16 79.4524 23.6362C79.9138 19.1125 79.0091 15.9518 74.4128 15.9518C69.8164 15.9518 68.2671 19.1125 67.8057 23.6362C67.3443 28.16 68.2489 31.3207 72.8453 31.3207ZM74.1206 18.8162C76.0488 18.8162 76.6498 20.1792 76.2973 23.6362C75.9447 27.0932 75.0656 28.4563 73.1374 28.4563C71.2093 28.4563 70.6082 27.0932 70.9608 23.6362C71.3134 20.1792 72.1925 18.8162 74.1206 18.8162Z" fill="#282828"/>
<path d="M85.782 22.0361C84.2847 21.8188 83.754 21.483 83.8628 20.4163C83.9595 19.4681 84.908 18.9545 86.5249 18.9545C88.0054 18.9545 89.582 19.3496 90.3404 19.7446L90.6527 16.6827C90.0092 16.3074 88.5844 15.9518 86.5974 15.9518C82.7403 15.9518 80.9421 17.7297 80.668 20.4163C80.3718 23.3202 81.681 24.4264 85.3319 24.9203C86.7922 25.1178 87.241 25.4931 87.1261 26.6191C87.0233 27.6266 86.3099 28.318 84.1087 28.318C82.1801 28.318 80.6203 27.5673 79.9788 27.1723L79.6483 30.412C80.6358 31.0441 82.5361 31.3207 84.114 31.3207C87.5621 31.3207 89.9763 29.9971 90.3511 26.3228C90.6735 23.1621 88.9693 22.4905 85.782 22.0361Z" fill="#282828"/>
<path d="M118.322 15.9543H121.483L120.831 21.249C121.7 20.8275 122.583 20.6168 123.479 20.6168C124.743 20.6168 125.599 20.9132 126.047 21.5058C126.495 22.0854 126.653 22.8954 126.521 23.9359L125.691 30.7716H122.53L123.301 24.41C123.406 23.5934 123.09 23.1851 122.352 23.1851C121.707 23.1851 121.095 23.3564 120.515 23.6988L119.666 30.7716H116.505L118.322 15.9543Z" fill="#282828"/>
<path d="M131.772 26.8796H130.271C130.152 27.4986 130.244 27.9332 130.547 28.1835C130.85 28.4206 131.397 28.5391 132.187 28.5391C133.517 28.5391 134.644 28.3218 135.566 27.8871L135.269 30.3567C134.097 30.8177 132.833 31.0481 131.476 31.0481C129.843 31.0481 128.677 30.6267 127.979 29.7837C127.294 28.9276 127.057 27.6105 127.268 25.8325C127.689 22.3554 129.448 20.6168 132.543 20.6168C134.031 20.6168 135.091 20.8802 135.724 21.4071C136.369 21.9339 136.626 22.711 136.494 23.7383C136.244 25.8325 134.67 26.8796 131.772 26.8796ZM130.508 24.9434H132.049C132.457 24.9434 132.773 24.8512 132.997 24.6669C133.221 24.4693 133.353 24.2322 133.392 23.9556C133.432 23.679 133.359 23.4485 133.175 23.2642C132.991 23.0798 132.694 22.9876 132.286 22.9876C131.245 22.9876 130.653 23.6395 130.508 24.9434Z" fill="#282828"/>
<path d="M141.172 28.302L140.856 30.8506C140.579 30.9033 140.277 30.9296 139.947 30.9296C139.052 30.9296 138.347 30.6991 137.833 30.2381C137.32 29.764 137.122 29.0659 137.241 28.144L138.742 15.9543H141.883L140.441 27.7093C140.415 27.9069 140.454 28.0584 140.56 28.1637C140.665 28.2559 140.869 28.302 141.172 28.302Z" fill="#282828"/>
<path d="M146.317 28.302L146 30.8506C145.724 30.9033 145.421 30.9296 145.092 30.9296C144.196 30.9296 143.491 30.6991 142.978 30.2381C142.464 29.764 142.266 29.0659 142.385 28.144L143.886 15.9543H147.028L145.586 27.7093C145.559 27.9069 145.599 28.0584 145.704 28.1637C145.809 28.2559 146.014 28.302 146.317 28.302Z" fill="#282828"/>
<path d="M156.202 30.7716H154.306L153.99 30.0603C152.831 30.7189 151.645 31.0481 150.434 31.0481C149.169 31.0481 148.313 30.7584 147.865 30.1789C147.417 29.5862 147.253 28.7696 147.371 27.7291L148.221 20.8934H151.382L150.592 27.2549C150.499 28.0715 150.822 28.4798 151.56 28.4798C152.218 28.4798 152.824 28.3086 153.377 27.9662L154.246 20.8934H157.408L156.202 30.7716Z" fill="#282828"/>
<path d="M163.271 30.9296H160.545L158.095 20.8934H161.394L162.382 27.0179L164.872 20.8934H168.171L163.271 30.9296Z" fill="#282828"/>
<path d="M173.485 28.0649L174.038 23.6C173.67 23.3234 173.222 23.1851 172.695 23.1851C172.01 23.1851 171.516 23.4025 171.213 23.8371C170.91 24.2586 170.7 24.9237 170.581 25.8325C170.476 26.7544 170.522 27.4262 170.719 27.8476C170.917 28.2691 171.358 28.4798 172.043 28.4798C172.28 28.4798 172.517 28.4469 172.754 28.381C172.991 28.3152 173.169 28.2427 173.288 28.1637L173.485 28.0649ZM177.535 20.8934L176.33 30.7716H174.434L173.979 29.9813C173.084 30.6925 171.977 31.0481 170.66 31.0481C169.369 31.0481 168.461 30.6333 167.934 29.8035C167.407 28.9606 167.249 27.6369 167.46 25.8325C167.684 24.0281 168.164 22.711 168.902 21.8812C169.639 21.0383 170.654 20.6168 171.944 20.6168C173.248 20.6168 174.269 20.9724 175.007 21.6837L175.639 20.8934H177.535Z" fill="#282828"/>
<path d="M186.541 30.5147C185.711 30.8703 184.73 31.0481 183.597 31.0481C182.464 31.0481 181.523 30.8637 180.772 30.495C180.021 30.113 179.481 29.5862 179.152 28.9145C178.823 28.2296 178.612 27.4196 178.52 26.4844C178.428 25.5361 178.467 24.4956 178.638 23.3629C178.783 22.1644 179 21.1239 179.29 20.2414C179.58 19.3458 179.982 18.5424 180.495 17.8312C181.022 17.1199 181.701 16.5865 182.53 16.2309C183.36 15.8621 184.341 15.6777 185.474 15.6777C186.607 15.6777 187.548 15.8687 188.299 16.2507C189.05 16.6195 189.59 17.1463 189.919 17.8312C190.248 18.5029 190.459 19.3129 190.551 20.2612C190.657 21.1963 190.624 22.2302 190.453 23.3629C190.295 24.5615 190.071 25.6086 189.781 26.5042C189.491 27.3866 189.083 28.1835 188.556 28.8947C188.042 29.6059 187.371 30.1459 186.541 30.5147ZM187.074 19.6488C186.758 18.9112 186.113 18.5424 185.138 18.5424C184.163 18.5424 183.419 18.9178 182.906 19.6685C182.405 20.4061 182.05 21.6376 181.839 23.3629C181.615 25.0883 181.668 26.3264 181.997 27.0771C182.326 27.8147 182.978 28.1835 183.953 28.1835C184.927 28.1835 185.665 27.8147 186.165 27.0771C186.666 26.3396 187.028 25.1015 187.252 23.3629C187.463 21.6244 187.404 20.3863 187.074 19.6488Z" fill="#282828"/>
<path d="M197.203 21.7627C198.099 21.8944 198.816 22.0393 199.356 22.1973C199.896 22.3422 200.384 22.5727 200.818 22.8888C201.253 23.1917 201.543 23.6 201.688 24.1137C201.833 24.6273 201.859 25.2727 201.767 26.0498C201.358 29.382 199.218 31.0481 195.346 31.0481C193.291 31.0481 191.783 30.7452 190.822 30.1394L191.237 26.8993C192.462 27.6632 193.844 28.0452 195.385 28.0452C197.322 28.0452 198.355 27.4788 198.487 26.3461C198.553 25.793 198.454 25.3978 198.191 25.1608C197.941 24.9237 197.447 24.7525 196.709 24.6471C194.839 24.3969 193.555 23.9425 192.857 23.2839C192.159 22.6254 191.895 21.5783 192.066 20.1427C192.238 18.7465 192.824 17.6534 193.825 16.8631C194.826 16.0729 196.268 15.6777 198.151 15.6777C200.048 15.6777 201.418 15.9214 202.261 16.4087L201.885 19.4709C201.477 19.2602 200.911 19.0758 200.186 18.9178C199.462 18.7597 198.744 18.6807 198.033 18.6807C196.321 18.6807 195.412 19.168 195.306 20.1427C195.241 20.6563 195.346 21.0251 195.623 21.249C195.899 21.4729 196.426 21.6441 197.203 21.7627Z" fill="#282828"/>
</svg>

<svg width="218" height="47" fill="none" xmlns="http://www.w3.org/2000/svg"><path d="m17.251 16.227-1.512 14.815h3.118l.721-7.072c.313-.197 1.027-.513 1.787-.513.838 0 1.04.493.966 1.224l-.65 6.361H24.8l.698-6.835c.193-1.896-.422-3.319-3.071-3.319-1.072 0-1.88.277-2.598.633l.54-5.294h-3.117ZM34.635 27.148c.569-3.101.6-6.262-3.568-6.262-3.018 0-4.726 1.66-5.088 5.215-.363 3.556 1.026 5.215 4.239 5.215 1.168 0 2.553-.217 3.73-.691l.253-2.47c-.737.356-1.858.652-3.319.652-1.519 0-2.142-.375-1.934-1.659h5.687Zm-3.77-3.892c1.187 0 1.332.87 1.046 1.956h-2.765c.127-1.244.667-1.956 1.718-1.956ZM36.173 21.163l-1.007 9.877h3.116l.72-7.072c.313-.198 1.026-.514 1.786-.514.837 0 1.04.494.965 1.225l-.648 6.36h3.115l.697-6.834c.194-1.897-.42-3.32-3.069-3.32-1.07 0-2.33.317-3.489.989l-.317-.711h-1.869ZM51.694 28.655c-.16.04-.557.119-.967.119-.993 0-1.241-.435-1.163-1.205l.385-3.773h2.417l.268-2.627h-2.417l.285-2.786-3.205.85-.208 2.034-1.623.435-.213 2.094h1.578l-.411 4.03c-.238 2.33.676 3.496 3.404 3.496.429 0 1.178-.079 1.618-.197l.252-2.47ZM58.387 28.333s-.646.415-1.425.415c-1.44 0-1.655-.948-1.482-2.647.171-1.68.581-2.647 2.022-2.647.78 0 1.34.415 1.34.415l-.455 4.464Zm3.847-7.17h-1.87l-.606.79c-.62-.593-1.488-1.067-3.045-1.067-2.532 0-3.939 1.58-4.31 5.215-.37 3.635.715 5.215 3.246 5.215 1.558 0 2.527.04 3.27-.553l.438.277h1.87l1.007-9.877ZM62.467 31.048h3.105l1.01-9.877h-3.105l-1.01 9.877Zm1.01-12.741c-.109 1.066.609 1.876 1.664 1.876 1.035 0 1.938-.81 2.047-1.876.107-1.047-.629-1.877-1.664-1.877-1.054 0-1.94.83-2.047 1.877ZM72.845 31.32c4.597 0 6.146-3.16 6.607-7.684.462-4.523-.443-7.684-5.04-7.684-4.596 0-6.145 3.16-6.606 7.684-.462 4.524.443 7.685 5.04 7.685Zm1.276-12.504c1.928 0 2.529 1.363 2.176 4.82-.352 3.457-1.231 4.82-3.16 4.82-1.928 0-2.529-1.363-2.176-4.82.352-3.457 1.231-4.82 3.16-4.82ZM85.782 22.036c-1.497-.217-2.028-.553-1.92-1.62.098-.948 1.046-1.462 2.663-1.462 1.48 0 3.057.396 3.815.79l.313-3.061c-.644-.376-2.069-.731-4.056-.731-3.857 0-5.655 1.778-5.929 4.464-.296 2.904 1.013 4.01 4.664 4.504 1.46.198 1.909.573 1.794 1.7-.103 1.007-.816 1.698-3.017 1.698-1.929 0-3.489-.75-4.13-1.146l-.33 3.24c.987.632 2.887.909 4.465.909 3.448 0 5.862-1.324 6.237-4.998.323-3.16-1.382-3.832-4.569-4.287ZM118.322 15.954h3.161l-.652 5.295c.869-.421 1.752-.632 2.648-.632 1.264 0 2.12.296 2.568.889.448.58.606 1.39.474 2.43l-.83 6.836h-3.161l.771-6.362c.105-.817-.211-1.225-.949-1.225-.645 0-1.257.171-1.837.514l-.849 7.073h-3.161l1.817-14.818ZM131.772 26.88h-1.501c-.119.619-.027 1.053.276 1.303.303.238.85.356 1.64.356 1.33 0 2.457-.217 3.379-.652l-.297 2.47c-1.172.46-2.436.691-3.793.691-1.633 0-2.799-.421-3.497-1.264-.685-.856-.922-2.174-.711-3.951.421-3.478 2.18-5.216 5.275-5.216 1.488 0 2.548.263 3.181.79.645.527.902 1.304.77 2.331-.25 2.095-1.824 3.142-4.722 3.142Zm-1.264-1.937h1.541c.408 0 .724-.092.948-.276a1.14 1.14 0 0 0 .395-.711.77.77 0 0 0-.217-.692c-.184-.184-.481-.276-.889-.276-1.041 0-1.633.652-1.778 1.955ZM141.172 28.302l-.316 2.549a4.864 4.864 0 0 1-.909.079c-.895 0-1.6-.23-2.114-.692-.513-.474-.711-1.172-.592-2.094l1.501-12.19h3.141l-1.442 11.755c-.026.198.013.35.119.455.105.092.309.138.612.138ZM146.317 28.302 146 30.851a4.853 4.853 0 0 1-.908.079c-.896 0-1.601-.23-2.114-.692-.514-.474-.712-1.172-.593-2.094l1.501-12.19h3.142l-1.442 11.755c-.027.198.013.35.118.455.105.092.31.138.613.138ZM156.202 30.772h-1.896l-.316-.712c-1.159.659-2.345.988-3.556.988-1.265 0-2.121-.29-2.569-.87-.448-.592-.612-1.408-.494-2.449l.85-6.836h3.161l-.79 6.362c-.093.817.23 1.225.968 1.225.658 0 1.264-.171 1.817-.514l.869-7.073h3.162l-1.206 9.879ZM163.271 30.93h-2.726l-2.45-10.037h3.299l.988 6.125 2.49-6.125h3.299l-4.9 10.037ZM173.485 28.065l.553-4.465c-.368-.277-.816-.415-1.343-.415-.685 0-1.179.218-1.482.652-.303.422-.513 1.087-.632 1.995-.105.922-.059 1.594.138 2.016.198.421.639.632 1.324.632.237 0 .474-.033.711-.099s.415-.138.534-.217l.197-.1Zm4.05-7.172-1.205 9.879h-1.896l-.455-.79c-.895.71-2.002 1.066-3.319 1.066-1.291 0-2.199-.415-2.726-1.244-.527-.843-.685-2.167-.474-3.971.224-1.805.704-3.122 1.442-3.952.737-.843 1.752-1.264 3.042-1.264 1.304 0 2.325.355 3.063 1.067l.632-.79h1.896ZM186.541 30.515c-.83.355-1.811.533-2.944.533s-2.074-.184-2.825-.553c-.751-.382-1.291-.909-1.62-1.58-.329-.685-.54-1.495-.632-2.43-.092-.949-.053-1.99.118-3.122.145-1.199.362-2.24.652-3.122a8.635 8.635 0 0 1 1.205-2.41 4.879 4.879 0 0 1 2.035-1.6c.83-.369 1.811-.553 2.944-.553s2.074.19 2.825.573c.751.368 1.291.895 1.62 1.58.329.672.54 1.482.632 2.43.106.935.073 1.97-.098 3.102-.158 1.198-.382 2.246-.672 3.141a8.375 8.375 0 0 1-1.225 2.39 4.88 4.88 0 0 1-2.015 1.62Zm.533-10.866c-.316-.738-.961-1.107-1.936-1.107s-1.719.376-2.232 1.127c-.501.737-.856 1.969-1.067 3.694-.224 1.725-.171 2.963.158 3.714.329.738.981 1.106 1.956 1.106.974 0 1.712-.368 2.212-1.106.501-.737.863-1.976 1.087-3.714.211-1.739.152-2.977-.178-3.714ZM197.203 21.763c.896.131 1.613.276 2.153.434.54.145 1.028.376 1.462.692.435.303.725.711.87 1.225.145.513.171 1.159.079 1.936-.409 3.332-2.549 4.998-6.421 4.998-2.055 0-3.563-.303-4.524-.909l.415-3.24c1.225.764 2.607 1.146 4.148 1.146 1.937 0 2.97-.566 3.102-1.699.066-.553-.033-.948-.296-1.185-.25-.237-.744-.409-1.482-.514-1.87-.25-3.154-.704-3.852-1.363s-.962-1.706-.791-3.141c.172-1.396.758-2.49 1.759-3.28 1.001-.79 2.443-1.185 4.326-1.185 1.897 0 3.267.243 4.11.73l-.376 3.063c-.408-.21-.974-.395-1.699-.553a10.07 10.07 0 0 0-2.153-.237c-1.712 0-2.621.487-2.727 1.462-.065.513.04.882.317 1.106.276.224.803.395 1.58.514Z" fill="#282828"/></svg>
